X: 28092
T: Mr. Bushby Maitland's
R: reel
M: 4/4
K: Dmajor
A|FDAF d2 TdA|d2 Tdf eEEA|FDAF d2dB|cdeg fddA|
FDAF d2 TdA|d2 Tdf eEEA|FDAF dABG|FAdg fdTd||
g|Tf>ede fgaf|Tgfed cAeg|Tfede fgaf|ecdb addg|
fdfg fgaf|Tg>fed cAeg|fdgb afge|fdec dDD||

